packages/Snapp/src/VideoIcon/index.svg

<?xml version="1.0" encoding="UTF-8"?>
<svg width="24px" height="24px" viewBox="0 0 24 24" version="1.1" xmlns="http://www.w3.org/2000/svg" xmlns:xlink="http://www.w3.org/1999/xlink">
    <title>Icons/24/Video</title>
    <g id="Icons/24/Video" stroke="none" stroke-width="1" fill="none" fill-rule="evenodd">
        <rect id="Container" fill-opacity="0" fill="#D8D8D8" fill-rule="nonzero" x="0" y="0" width="24" height="24"></rect>
        <path d="M20,14.7422 L18,14.2782 L18,9.7082 L20,9.2532 L20,14.7422 Z M16,16.0002 C16,16.5522 15.551,17.0002 15,17.0002 L5,17.0002 C4.449,17.0002 4,16.5522 4,16.0002 L4,8.0002 C4,7.4482 4.449,7.0002 5,7.0002 L15,7.0002 C15.551,7.0002 16,7.4482 16,8.0002 L16,16.0002 Z M21.624,7.2192 C21.386,7.0282 21.074,6.9562 20.778,7.0242 L17.966,7.6632 C17.796,6.1692 16.539,5.0002 15,5.0002 L5,5.0002 C3.346,5.0002 2,6.3462 2,8.0002 L2,16.0002 C2,17.6542 3.346,19.0002 5,19.0002 L15,19.0002 C16.543,19.0002 17.803,17.8252 17.967,16.3242 L20.774,16.9742 C20.849,16.9912 20.925,17.0002 21,17.0002 C21.224,17.0002 21.444,16.9252 21.622,16.7832 C21.861,16.5932 22,16.3042 22,16.0002 L22,8.0002 C22,7.6962 21.861,7.4082 21.624,7.2192 L21.624,7.2192 Z" id="Fill-1" fill="#333333"></path>
    </g>
</svg>

<svg viewBox="0 0 24 24" xmlns="http://www.w3.org/2000/svg" fill="currentColor" focusable="false">
  <path d="M20 14.742l-2-.464v-4.57l2-.455v5.49zM16 16c0 .552-.449 1-1 1H5c-.551 0-1-.448-1-1V8c0-.552.449-1 1-1h10c.551 0 1 .448 1 1v8zm5.624-8.78a.996.996 0 00-.846-.196l-2.812.64A2.994 2.994 0 0015 5H5C3.346 5 2 6.346 2 8v8c0 1.654 1.346 3 3 3h10a2.993 2.993 0 002.967-2.676l2.807.65A.997.997 0 0022 16V8a1 1 0 00-.376-.78z" fill-rule="evenodd"/>
</svg>
